X: 19
T: No_115_White_Blossoms_on_Baboquivari_Mountain.krn
N: Derived from No_115_White_Blossoms_on_Baboquivari_Mountain.krn
%%abc-version 2.0
%%abcx-abcm2ps-target-version 5.9.1 (29 Sep 2008)
%%abc-creator hum2abc beta
%%abcx-conversion-date 2019/03/15 08:37:56
%%humdrum-veritas 446370835
%%humdrum-veritas-data 3207039214
%%linebreak <none>
%%barnumbers 0
L: 1/8
M: 2/4
K: Db clef=bass
[K:clef=bass][M:2/4]A,2EE | 
E2B,B, | 
E3C/B,/ ||  
[M:3/8]A,A,F, | 
D2B, | 
A,F,2 ||  
[M:2/4]A,A, A,F, | 
F, zB,2 ||  
[M:3/4]D2B,2A,2 | 
B,B, B,A, F,F, ||  
[M:2/4]A,A,A,2 | 
A,A, A,F, | 
F, zA,2 ||  
[M:3/4]B,B,B,3A,/F,/ ||  
[M:2/4]A,A, A,F, ||  
[M:3/4]A,A, A,F, E,D, ||  
[M:2/4]A,A, A,A, | 
A,2A,2 |]  



